symbolic/22x22/actions/kr_combine.svg

<svg xmlns="http://www.w3.org/2000/svg" width="22" height="22"><defs><style id="current-color-scheme" type="text/css"></style></defs><path style="fill:currentColor;color:#323a41" d="M2 2S1 2 1 3v1c0 1 1 1 1 1h3v6H2s-1 0-1 1v1c0 1 1 1 1 1h5s1 0 1-1v-3h2v2l5-4-5-4v2H8V3c0-1-1-1-1-1z" transform="translate(3 3)"/></svg>

<svg xmlns="http://www.w3.org/2000/svg" width="22" height="22" version="1.1">
 <defs>
  <style id="current-color-scheme" type="text/css">
   .ColorScheme-Text { color:#323a41; } .ColorScheme-Highlight { color:#4285f4; } .ColorScheme-NeutralText { color:#ff9800; } .ColorScheme-PositiveText { color:#4caf50; } .ColorScheme-NegativeText { color:#f44336; }
  </style>
 </defs>
 <g transform="translate(3,3)">
  <path style="fill:currentColor" class="ColorScheme-Text" d="M 2,2 C 2,2 1,2 1,3 V 4 C 1,5 2,5 2,5 H 5 V 11 H 2 C 2,11 1,11 1,12 V 13 C 1,14 2,14 2,14 H 7 C 7,14 8,14 8,13 V 10 H 10 V 12 L 15,8 10,4 V 6 H 8 V 3 C 8,2 7,2 7,2 Z"/>
 </g>
</svg>
